X:1
T:Why droops my soul with grief oppressed?
T:Thomas Clark
T:Text: Elizabeth Scott
T:This edition by Edmund Gooch released into the public domain, January 2016.
T:Why droops my soul with grief oppressed?
T:GILEAD. L.M. Hy 279 Mr Deacon's Collecn.
C:Thomas Clark
Z:Text: Elizabeth Scott
%%score [ 1 2 3 4 ]
L:1/8
M:3/4
K:C
V:1 treble nm="Air" snm="S."
V:2 treble nm="[Alto]" snm="A."
V:3 treble-8 transpose=-12 nm="Tenor" snm="T."
V:4 bass nm="[Bass]" snm="B."
V:1
"^Expressive" A2 | E4 c2 | B4 e2 | (d2 c2) B2 | A4 z2 | A2 B2 c2 | d4 G2 | A2 B4 | c4 z2 |: %9
w: Dear|Sa- viour,|at thy|feet _ I|lie,|Here to re-|ceive a|cure, or|die:|
w: Why|droops my|soul with|grief _ op-|press’d?|Whence these wild|tu- mults|in my|breast?|
w: Raise|to the|cross thy|tear- * ful|eyes;|Be- hold, the|Prince of|Glo- ry|dies!|
 c2 c2 c2 | d4 d2 | e4 (dc) | B4 B2 | (c2 B2) A2 | (B2 E2) ^G2 | (A>B c2) B2 | A4 z2 :| %17
w: But grace for-|bids that|pain- ful _|fear, In-|fi- * nite|grace, _ which|tri- * * umphs|here!|
w: Is there no|balm to|heal my wound,|_ No|kind _ phy-|si- * cian|to _ _ be|found?|
w: He dies, ex-|ten- ded|on the _|tree, Thence|sheds _ a|sov- * ’reign|balm _ _ for|me.|
V:2
 E2 | E4 E2 | E4 E2 | (F2 E2) E2 | E4 z2 | F2 F2 G2 | G4 G2 | D2 D4 | E4 z2 |: G2 G2 G2 | G4 G2 | %11
w: Dear|Sa- viour,|at thy|feet _ I|lie,|Here to re-|ceive a|cure, or|die:|But grace for-|bids that|
w: Why|droops my|soul with|grief _ op-|press’d?|Whence these wild|tu- mults|in my|breast?|Is there no|balm to|
w: Raise|to the|cross thy|tear- * ful|eyes;|Be- hold, the|Prince of|Glo- ry|dies!|He dies, ex-|ten- ded|
 G4 F2 | E4 E2 | E4 E2 | E4 E2 | E4 E2 | E4 z2 :| %17
w: pain- ful|fear, In-|fi- nite|grace, which|tri- umphs|here!|
w: heal my|wound, No|kind phy-|si- cian|to be|found?|
w: on the|tree, Thence|sheds a|sov- ’reign|balm for|me.|
V:3
 c2 | B4 A2 | ^G4 A2 | (B2 A2) ^G2 | A4 z2 | c2 d2 e2 | B4 c2 | A2 G4 | G4 z2 |: e2 e2 e2 | B4 B2 | %11
w: Dear|Sa- viour,|at thy|feet _ I|lie,|Here to re-|ceive a|cure, or|die:|But grace for-|bids that|
w: Why|droops my|soul with|grief _ op-|press’d?|Whence these wild|tu- mults|in my|breast?|Is there no|balm to|
w: Raise|to the|cross thy|tear- * ful|eyes;|Be- hold, the|Prince of|Glo- ry|dies!|He dies, ex-|ten- ded|
 c4 (BA) | ^G4 G2 | (A2 B2) c2 | ^G4 B2 | (c>B A2) ^G2 | A4 z2 :| %17
w: pain- ful _|fear, In-|fi- * nite|grace, which|tri- * * umphs|here!|
w: heal my _|wound, No|kind _ phy-|si- cian|to _ _ be|found?|
w: on the _|tree, Thence|sheds _ a|sov- ’reign|balm _ _ for|me.|
V:4
 A,2 |"^6" ^G,4 A,2 |"^#" E,4"^6" C,2 |"^6" (D,2"^64" E,2)"^5#" E,2 | A,,4 z2 | F,2"^6" D,2 C,2 | %6
w: Dear|Sa- viour,|at thy|feet _ I|lie,|Here to re-|
w: Why|droops my|soul with|grief _ op-|press’d?|Whence these wild|
w: Raise|to the|cross thy|tear- * ful|eyes;|Be- hold, the|
 (G,2"^42" F,2)"^6" E,2 |"^6" F,2 G,4 | C,4 z2 |: %9
w: ceive _ a|cure, or|die:|
w: tu- * mults|in my|breast?|
w: Prince _ of|Glo- ry|dies!|
"^Now give a loose, my soul, to joy,Hosannas be thy blest employ;Salvation thy eternal theme,And swell the song with Jesu’s name." C,2"^6" E,2 C,2 | %10
w: But grace for-|
w: Is there no|
w: He dies, ex-|
 G,4 G,2 | C,4"^86""^75" D,2 | %12
w: bids that|pain- ful|
w: balm to|heal my|
w: ten- ded|on the|
"^Notes: The order of staves in the source is Tenor - [Alto] - Air - [Bass], with the altopart printed in the treble clef an octave above sounding pitch. The first verse onlyof the text is given in the source: subsequent verses have here been addededitorially. The last bar is printed in the source containing the last note (a minim)only, followed by a closing repeat barline: a crotchet rest has been editoriallyadded to this bar.""^#" E,4"^#" E,2 | %13
w: fear, In-|
w: wound, No|
w: tree, Thence|
 (A,2"^6" ^G,2) A,2 |"^#" E,4"^-" D,2 |"^6" (C,>D,"^64" E,2)"^5#" E,2 | A,,4 z2 :| %17
w: fi- * nite|grace, which|tri- * * umphs|here!|
w: kind _ phy-|si- cian|to _ _ be|found?|
w: sheds _ a|sov- ’reign|balm _ _ for|me.|

